svgs/solid/star-exclamation.svg

<svg xmlns="http://www.w3.org/2000/svg" viewBox="0 0 576 512"><!--! Font Awesome Pro 6.1.1 by @fontawesome - https://fontawesome.com License - https://fontawesome.com/license (Commercial License) Copyright 2022 Fonticons, Inc. --><path d="M288.1-.0391C300.4-.0391 311.6 6.954 316.9 17.97L381.2 150.3L524.9 171.5C536.8 173.2 546.8 181.6 550.6 193.1C554.4 204.7 551.3 217.3 542.7 225.9L438.5 328.1L463.1 474.7C465.1 486.7 460.2 498.9 450.2 506C440.3 513.1 427.2 514 416.5 508.3L288.1 439.8L159.8 508.3C149 514 135.9 513.1 126 506C116.1 498.9 111.1 486.7 113.2 474.7L137.8 328.1L33.58 225.9C24.97 217.3 21.91 204.7 25.69 193.1C29.46 181.6 39.43 173.2 51.42 171.5L195 150.3L259.4 17.97C264.7 6.954 275.9-.0391 288.1-.0391H288.1zM264 152V264C264 277.3 274.7 288 288 288C301.3 288 312 277.3 312 264V152C312 138.7 301.3 128 288 128C274.7 128 264 138.7 264 152zM288 320C270.3 320 256 334.3 256 352C256 369.7 270.3 384 288 384C305.7 384 320 369.7 320 352C320 334.3 305.7 320 288 320z"/></svg>

<svg xmlns="http://www.w3.org/2000/svg" viewBox="0 0 576 512"><!--! Font Awesome Pro 6.4.2 by @fontawesome - https://fontawesome.com License - https://fontawesome.com/license (Commercial License) Copyright 2023 Fonticons, Inc. --><path d="M288.1 0c12.2 0 23.4 7 28.8 18l64.3 132.3 143.6 21.2c12 1.8 22 10.2 25.7 21.7s.7 24.2-7.9 32.7L438.5 329l24.6 145.7c2 12-3 24.2-12.9 31.3s-23 8-33.8 2.3L288.1 439.8 159.8 508.3C149 514 135.9 513.1 126 506s-14.9-19.3-12.9-31.3L137.8 329 33.6 225.9c-8.6-8.5-11.7-21.2-7.9-32.7s13.7-19.9 25.7-21.7L195 150.3 259.4 18c5.4-11 16.5-18 28.8-18zM288 128c-13.3 0-24 10.7-24 24V264c0 13.3 10.7 24 24 24s24-10.7 24-24V152c0-13.3-10.7-24-24-24zm32 224a32 32 0 1 0 -64 0 32 32 0 1 0 64 0z"/></svg>
